assets/images/appditto-logos/appditto-logo-horizontal.svg

<?xml version="1.0" encoding="UTF-8"?>
<svg width="160px" height="40px" viewBox="0 0 160 40" version="1.1" xmlns="http://www.w3.org/2000/svg" xmlns:xlink="http://www.w3.org/1999/xlink">
    <!-- Generator: Sketch 60 (88103) - https://sketch.com -->
    <title>logo@1x</title>
    <desc>Created with Sketch.</desc>
    <defs>
        <linearGradient x1="28.1924628%" y1="-8.90744936%" x2="76.5405706%" y2="117.632947%" id="linearGradient-1">
            <stop stop-color="#63E5FF" offset="0%"></stop>
            <stop stop-color="#40A5FF" offset="35.5917772%"></stop>
            <stop stop-color="#3C0CBB" offset="100%"></stop>
        </linearGradient>
    </defs>
    <g id="Page-1" stroke="none" stroke-width="1" fill="none" fill-rule="evenodd">
        <g id="Desktop-HD-Copy-6" transform="translate(-250.000000, -20.000000)">
            <g id="logo" transform="translate(250.000000, 20.000000)">
                <path d="M36.631257,7.1578672 C37.3997818,7.15837681 38.1188019,7.53763957 38.5538168,8.17196304 C38.9888316,8.80628651 39.0840817,9.6143642 38.8085022,10.3326503 L38.8085022,10.3326503 L28.0093656,38.5011117 C27.6633426,39.4036985 26.7977411,39.9996073 25.8321203,40 L25.8321203,40 L10.5574383,40 C9.78897619,40 9.06989342,39.6207447 8.63483294,38.986529 C8.19977246,38.3523132 8.10453337,37.5442767 8.38019302,36.8260889 L8.38019302,36.8260889 L9.3111831,34.3950822 L18.7734911,34.3950822 C19.7391767,34.3940555 20.6045884,33.7979306 20.9507364,32.895322 L20.9507364,32.895322 L30.818012,7.1578672 Z M28.4056243,-7.10542736e-14 C29.1740864,-7.10542736e-14 29.8931692,0.379255267 30.3282296,1.01347104 C30.7632901,1.64768682 30.8585292,2.45572329 30.5828696,3.17391115 L30.5828696,3.17391115 L19.7837329,31.3380128 C19.4386118,32.2425668 18.5718791,32.8403889 17.6047458,32.8403889 L17.6047458,32.8403889 L2.33180561,32.8403889 C1.56372889,32.8396595 0.845176339,32.4606297 0.410252684,31.8267875 C-0.0246709706,31.1929454 -0.12028551,30.3854373 0.154560323,29.6673497 L0.154560323,29.6673497 L10.9536969,1.49888826 C11.29972,0.596301539 12.1653214,0.000392652207 13.1309422,-7.10542736e-14 L13.1309422,-7.10542736e-14 Z M26.416493,9.68566072 L3.25060312,25.9266687 L1.80839584,29.6917644 C1.67094846,30.0510544 1.71868608,30.4550343 1.9360799,30.7722916 C2.15347373,31.0895488 2.51274271,31.2795407 2.89701849,31.2804639 L2.89701849,31.2804639 L17.3347674,31.2769761 C17.8183277,31.2764223 18.2515353,30.9775594 18.424261,30.5253521 L18.424261,30.5253521 L26.416493,9.68566072 Z M28.7478872,3.60465623 L5.58025558,19.8474081 L4.4158648,22.8852945 L27.5817547,6.64777434 L28.7478872,3.60465623 Z" id="Combined-Shape-Copy" fill="url(#linearGradient-1)"></path>
                <path d="M59.3354059,32.8165517 L57.5419689,27.9006897 L48.7875648,27.9006897 L46.9941278,32.8165517 L42.5561313,32.8165517 L50.8241796,11.302069 L55.6877375,11.302069 L63.8949914,32.8165517 L59.3354059,32.8165517 Z M53.1647668,15.9448276 L50.1858377,24.0772414 L56.143696,24.0772414 L53.1647668,15.9448276 Z M69.4272893,38.582069 L65.3844568,38.582069 L65.3844568,17.8868966 L69.3057003,17.8868966 L69.3057003,19.7075862 C69.9744395,18.5544828 71.6462875,17.5531034 73.895683,17.5531034 C78.2728851,17.5531034 80.7958558,20.8910345 80.7958558,25.3213793 C80.7958558,29.8427586 77.9689127,33.1806897 73.7436969,33.1806897 C71.6766848,33.1806897 70.1568229,32.3613793 69.4272893,31.36 L69.4272893,38.582069 Z M76.8138178,25.3517241 C76.8138178,22.7117241 75.172367,21.1641379 73.1053549,21.1641379 C71.0383428,21.1641379 69.3664948,22.7117241 69.3664948,25.3517241 C69.3664948,27.9917241 71.0383428,29.5696552 73.1053549,29.5696552 C75.172367,29.5696552 76.8138178,28.022069 76.8138178,25.3517241 Z M86.8421433,38.582069 L82.7993108,38.582069 L82.7993108,17.8868966 L86.7205543,17.8868966 L86.7205543,19.7075862 C87.3892935,18.5544828 89.0611416,17.5531034 91.3105371,17.5531034 C95.6877391,17.5531034 98.2107098,20.8910345 98.2107098,25.3213793 C98.2107098,29.8427586 95.3837668,33.1806897 91.1585509,33.1806897 C89.0915388,33.1806897 87.571677,32.3613793 86.8421433,31.36 L86.8421433,38.582069 Z M94.2286718,25.3517241 C94.2286718,22.7117241 92.587221,21.1641379 90.5202089,21.1641379 C88.4531968,21.1641379 86.7813488,22.7117241 86.7813488,25.3517241 C86.7813488,27.9917241 88.4531968,29.5696552 90.5202089,29.5696552 C92.587221,29.5696552 94.2286718,28.022069 94.2286718,25.3517241 Z M115.299484,10.8468966 L115.299484,30.1158621 C115.299484,31.1172414 115.360279,32.2096552 115.421073,32.8165517 L111.560624,32.8165517 C111.49983,32.5131034 111.408638,31.7848276 111.408638,31.0868966 C110.739899,32.2703448 109.220037,33.1806897 107.213819,33.1806897 C102.958206,33.1806897 99.9184826,29.8427586 99.9184826,25.3213793 C99.9184826,20.9517241 102.867015,17.5227586 107.09223,17.5227586 C109.675996,17.5227586 110.891885,18.5848276 111.317446,19.3737931 L111.317446,10.8468966 L115.299484,10.8468966 Z M103.991712,25.3213793 C103.991712,27.9917241 105.572369,29.5696552 107.700175,29.5696552 C109.767187,29.5696552 111.378241,27.9917241 111.378241,25.2910345 C111.378241,22.6206897 109.767187,21.1337931 107.700175,21.1337931 C105.633163,21.1337931 103.991712,22.6510345 103.991712,25.3213793 Z M121.978587,32.8165517 L117.935755,32.8165517 L117.935755,17.8868966 L121.978587,17.8868966 L121.978587,32.8165517 Z M134.007604,17.8868966 C135.588261,17.8868966 136.317794,16.8551724 136.317794,15.52 L136.317794,13.4262069 L139.965463,13.4262069 L139.965463,17.8868966 L142.974789,17.8868966 L142.974789,21.4675862 L139.965463,21.4675862 L139.965463,27.7186207 C139.965463,29.0234483 140.573407,29.4482759 141.728502,29.4482759 C142.214858,29.4482759 142.762008,29.3875862 142.974789,29.3268966 L142.974789,32.6648276 C142.610022,32.8165517 141.880489,33.0289655 140.694996,33.0289655 C137.776862,33.0289655 135.953027,31.2993103 135.953027,28.4165517 L135.953027,21.4675862 L130.368225,21.4675862 L130.368225,27.7186207 C130.368225,29.0234483 130.97617,29.4482759 132.131265,29.4482759 C132.617621,29.4482759 133.164771,29.3875862 133.377552,29.3268966 L133.377552,32.6648276 C133.012785,32.8165517 132.283251,33.0289655 131.097759,33.0289655 C128.179624,33.0289655 126.35579,31.2993103 126.35579,28.4165517 L126.35579,21.4675862 L123.650436,21.4675862 L123.650436,17.8868966 L124.410367,17.8868966 C125.991023,17.8868966 126.720557,16.8551724 126.720557,15.52 L126.720557,13.4262069 L130.368225,13.4262069 L130.368225,17.8868966 L134.007604,17.8868966 Z M152.063564,29.6 C154.039384,29.6 155.863218,28.1737931 155.863218,25.3517241 C155.863218,22.5296552 154.039384,21.1034483 152.063564,21.1034483 C150.087743,21.1034483 148.263909,22.5296552 148.263909,25.3517241 C148.263909,28.1434483 150.087743,29.6 152.063564,29.6 Z M152.063564,17.4317241 C156.531957,17.4317241 159.906051,20.7393103 159.906051,25.3517241 C159.906051,29.9337931 156.531957,33.2717241 152.063564,33.2717241 C147.59517,33.2717241 144.221077,29.9337931 144.221077,25.3517241 C144.221077,20.7393103 147.59517,17.4317241 152.063564,17.4317241 Z M119.941972,10.4827586 C121.340245,10.4827586 122.434546,11.6055172 122.434546,13.0013793 C122.434546,14.3365517 121.340245,15.4593103 119.941972,15.4593103 C118.574097,15.4593103 117.449399,14.3365517 117.449399,13.0013793 C117.449399,11.6055172 118.574097,10.4827586 119.941972,10.4827586 Z" id="Appditto" fill="#383C44"></path>
            </g>
        </g>
    </g>
</svg>

<svg xmlns="http://www.w3.org/2000/svg" width="160" height="40"><defs><linearGradient x1="28.1924628%" y1="-8.90744936%" x2="76.5405706%" y2="117.632947%" id="A"><stop stop-color="#63e5ff" offset="0%"/><stop stop-color="#40a5ff" offset="35.5917772%"/><stop stop-color="#3c0cbb" offset="100%"/></linearGradient></defs><g fill-rule="evenodd"><path d="M36.63 7.158c.77.001 1.488.38 1.923 1.014a2.34 2.34 0 0 1 .255 2.161L28.01 38.5c-.346.903-1.212 1.498-2.177 1.5H10.557a2.33 2.33 0 0 1-1.923-1.013 2.34 2.34 0 0 1-.255-2.16l.93-2.43h9.462c.966-.001 1.83-.597 2.177-1.5l9.867-25.737zM28.406 0a2.33 2.33 0 0 1 1.923 1.013 2.34 2.34 0 0 1 .255 2.16l-10.8 28.164c-.345.905-1.212 1.502-2.18 1.502H2.332C1.564 32.84.845 32.46.4 31.827a2.34 2.34 0 0 1-.256-2.159L10.954 1.5C11.3.596 12.165 0 13.13 0zm-1.99 9.686L3.25 25.927l-1.442 3.765a1.17 1.17 0 0 0 1.089 1.589l14.438-.003a1.17 1.17 0 0 0 1.089-.752l7.992-20.84zm2.33-6.08L5.58 19.847l-1.164 3.038L27.582 6.648l1.166-3.043z" fill="url(#A)"/><path d="M59.335 32.817L57.542 27.9h-8.754l-1.793 4.916h-4.438l8.268-21.514h4.864l8.207 21.514h-4.56zm-6.17-16.872l-2.98 8.132h5.958l-2.98-8.132zm16.263 22.637h-4.043V17.887h3.92v1.82c.67-1.153 2.34-2.154 4.6-2.154 4.377 0 6.9 3.338 6.9 7.768 0 4.52-2.827 7.86-7.052 7.86-2.067 0-3.587-.82-4.316-1.82v7.222zm7.387-13.23c0-2.64-1.64-4.188-3.708-4.188s-3.74 1.548-3.74 4.188 1.672 4.218 3.74 4.218 3.708-1.548 3.708-4.218zm10.028 13.23H82.8V17.887h3.92v1.82c.67-1.153 2.34-2.154 4.6-2.154 4.377 0 6.9 3.338 6.9 7.768 0 4.52-2.827 7.86-7.052 7.86-2.067 0-3.587-.82-4.316-1.82v7.222zm7.387-13.23c0-2.64-1.64-4.188-3.708-4.188s-3.74 1.548-3.74 4.188 1.672 4.218 3.74 4.218 3.708-1.548 3.708-4.218zm21.07-14.505v19.27c0 1 .06 2.094.122 2.7h-3.86a10.29 10.29 0 0 1-.152-1.73c-.67 1.183-2.19 2.094-4.195 2.094-4.256 0-7.295-3.338-7.295-7.86 0-4.37 2.95-7.8 7.174-7.8 2.584 0 3.8 1.062 4.225 1.85v-8.527h3.982zM103.992 25.32c0 2.67 1.58 4.248 3.708 4.248 2.067 0 3.678-1.578 3.678-4.28 0-2.67-1.61-4.157-3.678-4.157s-3.708 1.517-3.708 4.188zm17.987 7.495h-4.043v-14.93h4.043v14.93zm12.03-14.93c1.58 0 2.3-1.032 2.3-2.367v-2.094h3.648v4.46h3.01v3.58h-3.01v6.25c0 1.305.608 1.73 1.763 1.73.486 0 1.034-.06 1.246-.12v3.338c-.365.152-1.094.364-2.28.364-2.918 0-4.742-1.73-4.742-4.612v-6.95h-5.585v6.25c0 1.305.608 1.73 1.763 1.73.486 0 1.034-.06 1.246-.12v3.338c-.365.152-1.094.364-2.28.364-2.918 0-4.742-1.73-4.742-4.612v-6.95h-2.705v-3.58h.76c1.58 0 2.3-1.032 2.3-2.367v-2.094h3.648v4.46h3.64zM152.064 29.6c1.976 0 3.8-1.426 3.8-4.248s-1.824-4.248-3.8-4.248-3.8 1.426-3.8 4.248c0 2.792 1.824 4.248 3.8 4.248zm0-12.168c4.468 0 7.842 3.308 7.842 7.92 0 4.582-3.374 7.92-7.842 7.92s-7.842-3.338-7.842-7.92c0-4.612 3.374-7.92 7.842-7.92zm-32.122-6.95c1.398 0 2.493 1.123 2.493 2.52 0 1.335-1.094 2.458-2.493 2.458-1.368 0-2.493-1.123-2.493-2.458 0-1.396 1.125-2.52 2.493-2.52z" fill="#383c44"/></g></svg>
